svgs/thin/poll-people.svg

<svg xmlns="http://www.w3.org/2000/svg" viewBox="0 0 640 512"><!--! Font Awesome Pro 6.4.0 by @fontawesome - https://fontawesome.com License - https://fontawesome.com/license (Commercial License) Copyright 2023 Fonticons, Inc. --><path d="M112 48A32 32 0 1 0 48 48a32 32 0 1 0 64 0zM32 48a48 48 0 1 1 96 0A48 48 0 1 1 32 48zm480 0V176h80c17.7 0 32-14.3 32-32V80c0-17.7-14.3-32-32-32H512zm-16 0H272c-17.7 0-32 14.3-32 32v64c0 17.7 14.3 32 32 32H496V48zM224 80c0-26.5 21.5-48 48-48H592c26.5 0 48 21.5 48 48v64c0 26.5-21.5 48-48 48H272c-26.5 0-48-21.5-48-48V80zM384 336V464H592c17.7 0 32-14.3 32-32V368c0-17.7-14.3-32-32-32H384zm-16 0H272c-17.7 0-32 14.3-32 32v64c0 17.7 14.3 32 32 32h96V336zM224 368c0-26.5 21.5-48 48-48H592c26.5 0 48 21.5 48 48v64c0 26.5-21.5 48-48 48H272c-26.5 0-48-21.5-48-48V368zM112 336a32 32 0 1 0 -64 0 32 32 0 1 0 64 0zm-80 0a48 48 0 1 1 96 0 48 48 0 1 1 -96 0zM64 144c-26.5 0-48 21.5-48 48c0 8.8 7.2 16 16 16h96c8.8 0 16-7.2 16-16c0-26.5-21.5-48-48-48H64zm0-16H96c35.3 0 64 28.7 64 64c0 17.7-14.3 32-32 32H32c-17.7 0-32-14.3-32-32c0-35.3 28.7-64 64-64zM16 480c0 8.8 7.2 16 16 16h96c8.8 0 16-7.2 16-16c0-26.5-21.5-48-48-48H64c-26.5 0-48 21.5-48 48zM0 480c0-35.3 28.7-64 64-64H96c35.3 0 64 28.7 64 64c0 17.7-14.3 32-32 32H32c-17.7 0-32-14.3-32-32z"/></svg>

<svg xmlns="http://www.w3.org/2000/svg" viewBox="0 0 640 512"><!--! Font Awesome Pro 6.3.0 by @fontawesome - https://fontawesome.com License - https://fontawesome.com/license (Commercial License) Copyright 2023 Fonticons, Inc. --><path d="M128 48C128 74.51 106.5 96 80 96C53.49 96 32 74.51 32 48C32 21.49 53.49 0 80 0C106.5 0 128 21.49 128 48zM80 16C62.33 16 48 30.33 48 48C48 65.67 62.33 80 80 80C97.67 80 112 65.67 112 48C112 30.33 97.67 16 80 16zM224 80C224 53.49 245.5 32 272 32H592C618.5 32 640 53.49 640 80V144C640 170.5 618.5 192 592 192H272C245.5 192 224 170.5 224 144V80zM512 176H592C609.7 176 624 161.7 624 144V80C624 62.33 609.7 48 592 48H512V176zM496 48H272C254.3 48 240 62.33 240 80V144C240 161.7 254.3 176 272 176H496V48zM224 368C224 341.5 245.5 320 272 320H592C618.5 320 640 341.5 640 368V432C640 458.5 618.5 480 592 480H272C245.5 480 224 458.5 224 432V368zM384 464H592C609.7 464 624 449.7 624 432V368C624 350.3 609.7 336 592 336H384V464zM368 336H272C254.3 336 240 350.3 240 368V432C240 449.7 254.3 464 272 464H368V336zM128 336C128 362.5 106.5 384 80 384C53.49 384 32 362.5 32 336C32 309.5 53.49 288 80 288C106.5 288 128 309.5 128 336zM80 304C62.33 304 48 318.3 48 336C48 353.7 62.33 368 80 368C97.67 368 112 353.7 112 336C112 318.3 97.67 304 80 304zM96 128C131.3 128 160 156.7 160 192C160 209.7 145.7 224 128 224H32C14.33 224 0 209.7 0 192C0 156.7 28.65 128 64 128H96zM64 144C37.49 144 16 165.5 16 192C16 200.8 23.16 208 32 208H128C136.8 208 144 200.8 144 192C144 165.5 122.5 144 96 144H64zM0 480C0 444.7 28.65 416 64 416H96C131.3 416 160 444.7 160 480C160 497.7 145.7 512 128 512H32C14.33 512 0 497.7 0 480zM32 496H128C136.8 496 144 488.8 144 480C144 453.5 122.5 432 96 432H64C37.49 432 16 453.5 16 480C16 488.8 23.16 496 32 496z"/></svg>
